svgs/solid/circle-waveform-lines.svg

<svg xmlns="http://www.w3.org/2000/svg" viewBox="0 0 512 512"><!-- Font Awesome Pro 6.0.0-alpha2 by @fontawesome - https://fontawesome.com License - https://fontawesome.com/license (Commercial License) --><path d="M256 16C123.451 16 16 123.451 16 256S123.451 496 256 496S496 388.549 496 256S388.549 16 256 16ZM160 336C160 344.836 152.836 352 144 352S128 344.836 128 336V176C128 167.162 135.164 160 144 160S160 167.162 160 176V336ZM224 296C224 304.836 216.836 312 208 312S192 304.836 192 296V216C192 207.162 199.164 200 208 200S224 207.162 224 216V296ZM288 360C288 368.836 280.836 376 272 376S256 368.836 256 360V152C256 143.162 263.164 136 272 136S288 143.162 288 152V360ZM352 312C352 320.836 344.836 328 336 328S320 320.836 320 312V200C320 191.162 327.164 184 336 184S352 191.162 352 200V312ZM416 272C416 280.836 408.836 288 400 288S384 280.836 384 272V240C384 231.162 391.164 224 400 224S416 231.162 416 240V272Z"/></svg>

<svg xmlns="http://www.w3.org/2000/svg" viewBox="0 0 512 512"><!--! Font Awesome Pro 6.3.0 by @fontawesome - https://fontawesome.com License - https://fontawesome.com/license (Commercial License) Copyright 2023 Fonticons, Inc. --><path d="M256 512A256 256 0 1 0 256 0a256 256 0 1 0 0 512zm32-368V368c0 8.8-7.2 16-16 16s-16-7.2-16-16V144c0-8.8 7.2-16 16-16s16 7.2 16 16zM160 176V336c0 8.8-7.2 16-16 16s-16-7.2-16-16V176c0-8.8 7.2-16 16-16s16 7.2 16 16zm192 24V312c0 8.8-7.2 16-16 16s-16-7.2-16-16V200c0-8.8 7.2-16 16-16s16 7.2 16 16zM224 216v80c0 8.8-7.2 16-16 16s-16-7.2-16-16V216c0-8.8 7.2-16 16-16s16 7.2 16 16zm192 24v32c0 8.8-7.2 16-16 16s-16-7.2-16-16V240c0-8.8 7.2-16 16-16s16 7.2 16 16z"/></svg>
